X: 33492
T: Ragtime Annie
R: reel
M: 4/4
K: Dmajor
A||FA A2 BAGE|F2 GE D3A|FA A2 BA A2|c4 c3B|
ABcA B2 cB|ABcA B2 cB|ABcd (3efe dc|dA FA D2 AG||
FA A2 BAGE|F2 GE D3A|FA A2 BA A2|BccB cBcB||
ABcA B2 cB|ABcA B2 cB|ABcd (3fed ce|dA FA D2 (3efg||
a2 a2 agfe|(3Bcd ce d2 (3efg|a2 a2 agfd|B6 dB|
g2 g2 gfef|g3f gfef|(3gfe fd ecdB|cABG ABde|
fa a2 agfe|(3Bcd ce d2 Bc|d2 d2 d^c =c2|B6 dB|
gBdg (3Bcd gd|fAdf Adfd|ABcd (3efe dc|dAFA D3||
A||FA A2 BAGE|F2 GE D3A|FA A2 BA A2|c4 c3B|
ABcA B2 cB|ABcA B2 cB|ABcd (3efe dc|dA FA D2 AG||
FA A2 BAGE|F2 GE D3 A|FA A2 BA A2|Bce3 Bce||
BceB ceBe|BceB ceBc|ABcd (3efe dc|dA FA D2 (3efg||
a2 a2 agfe|(3Bcd ce d2 (3efg|a2 a2 agfd|B6 dB|
g2 g2 gfef|g3f gfef|(3gfe fd ecdB|cABG ABde|
fa a2 agfe|(3Bcd ce d2 Bc|d2 d2 d^c =c2|B6 dB|
gBdg (3Bcd gd|fAdf Adfd|ABcd (3efe dc|dAFA D3||

